X:81
T: WAS HOER ICH DRAUSSEN VOR DEM TOR
N: B0111
O: Europa, Mitteleuropa, Deutschland
R: Ballade, Romanze
M: 4/4
L: 1/8
K: Bb
B | B3FD2F2 | B2c2d2z
d | d2cdedcB | c4F2z
B | B3FD2F2 | B2c2d2z
d | d2cdedcB | c4F2z
F | F3GA3G | FGABc2z
B | A3Bc3B | ABcde2z
e | d3BGBAc | B4B,2z

@@@ Tune index: 1884
